src/assets/images/icon/magnifier/magnifier.svg

<svg width="24" height="24" viewBox="0 0 24 24" fill="none" xmlns="http://www.w3.org/2000/svg">
<g id="Icon / search">
<path id="Vector" d="M10.3996 19.53C9.2437 19.5312 8.09892 19.3184 7.03087 18.904C5.96283 18.4896 4.99253 17.8816 4.17561 17.115C2.51161 15.555 1.59961 13.485 1.59961 11.28C1.59961 9.07498 2.51161 7.00498 4.17561 5.44498C7.59961 2.23498 13.1836 2.23498 16.6236 5.44498C18.2876 7.00498 19.1996 9.07498 19.1996 11.28C19.1996 13.485 18.2876 15.555 16.6236 17.115C15.8067 17.8816 14.8364 18.4896 13.7683 18.904C12.7003 19.3184 11.5555 19.5312 10.3996 19.53ZM10.3996 4.52998C8.55961 4.52998 6.71961 5.18998 5.31161 6.50998C3.95161 7.78498 3.19961 9.47998 3.19961 11.28C3.19961 13.08 3.95161 14.775 5.31161 16.05C6.66347 17.3107 8.49276 18.0185 10.3996 18.0185C12.3065 18.0185 14.1357 17.3107 15.4876 16.05C16.8476 14.775 17.5996 13.08 17.5996 11.28C17.5996 9.47998 16.8476 7.78498 15.4876 6.50998C14.8206 5.88187 14.0276 5.38358 13.1545 5.04378C12.2813 4.70398 11.345 4.52936 10.3996 4.52998Z" fill="#696868"/>
<path id="Vector_2" d="M21.5996 22.5C21.4947 22.5012 21.3907 22.4818 21.2942 22.4431C21.1978 22.4043 21.111 22.3471 21.0396 22.275L15.6316 17.205C15.3116 16.905 15.3116 16.44 15.6316 16.14C15.9516 15.84 16.4476 15.84 16.7676 16.14L22.1756 21.21C22.4956 21.51 22.4956 21.975 22.1756 22.275C22.0156 22.425 21.8076 22.5 21.6156 22.5H21.5996Z" fill="#696868"/>
</g>
</svg>

<svg xmlns="http://www.w3.org/2000/svg" width="24" height="24" fill="none"><g fill="#696868"><path d="M10.4 19.53a9.295 9.295 0 0 1-3.37-.626 8.845 8.845 0 0 1-2.854-1.789C2.512 15.555 1.6 13.485 1.6 11.28s.912-4.275 2.576-5.835c3.424-3.21 9.008-3.21 12.448 0 1.664 1.56 2.576 3.63 2.576 5.835s-.912 4.275-2.576 5.835a8.844 8.844 0 0 1-2.856 1.789 9.295 9.295 0 0 1-3.368.626Zm0-15c-1.84 0-3.68.66-5.088 1.98C3.952 7.785 3.2 9.48 3.2 11.28c0 1.8.752 3.495 2.112 4.77 1.351 1.26 3.18 1.968 5.088 1.968 1.906 0 3.736-.707 5.088-1.968 1.36-1.275 2.112-2.97 2.112-4.77 0-1.8-.752-3.495-2.112-4.77a7.22 7.22 0 0 0-2.333-1.466A7.59 7.59 0 0 0 10.4 4.53Z"/><path d="M21.6 22.5a.797.797 0 0 1-.306-.057.754.754 0 0 1-.254-.168l-5.408-5.07a.71.71 0 0 1 0-1.065.83.83 0 0 1 1.136 0l5.408 5.07c.32.3.32.765 0 1.065a.831.831 0 0 1-.56.225H21.6Z"/></g></svg>
